X: 1
T: Ai vist lo lop
O: Traditional French
N: Transposed lower
L: 1/8
Q: 1/2=80
M: 4/4
K: Bb
|: d2 cd B2 AB | c3 c BA G2 | d2 cd B2 AB | .c2 .A2 G4 :|
|: G2 A2 BBBB | B2 c2 A2 F2 | B2 AB G2 GG | A3 A F=E D2 |
G2 A2 BBBB | B2 c2 A2 F2 | B2 A_B G2 GG | .A2 .F2 G4 :|

